X: 3
T: Missa L'homme arm\'e / Credo
N: Derived from Bus1001c-Missa_Lhomme_arme-Credo.krn
C: Antoine Busnoys
%%abc-version 2.0
%%abcx-abcm2ps-target-version 5.9.1 (29 Sep 2008)
%%abc-creator hum2abc beta
%%abcx-conversion-date 2019/02/16 20:26:06
%%abc-edited-by Jesse Rodin
%%abc-edited-by Megan K. Eagen 2013/12/19; Rodin 2/22/2014
%%abcx-initial-encoding-date 2013/12/19/
%%humdrum-veritas 856909862
%%humdrum-veritas-data 3783914286
%%linebreak <none>
%%barnumbers 0
L: 1/4
M: 3/1
Q: 1/2=120
%%staves [1 2 3 4]
V: 1 clef=treble
V: 2 clef=treble-8
V: 3 clef=treble-8
V: 4 clef=bass
K: F
[V:1] G12- | 
[V:2] G8G4 | 
[V:3] z12 :
[V:4] z12 | 
[V:1] G4A6G2 | 
[V:2] c8c4 | 
[V:3] z12 :
[V:4] z12 | 
[V:1] G4c6B2 | 
[V:2] B4A6G2 | 
[V:3] z12 | 
[V:4] z12 | 
[V:1] B3AB2c4A2 | 
[V:2] G4d2e2f4 | 
[V:3] z12 :
[V:4] z12 | 
[V:1] G2B3AA4D2 | 
[V:2] g6f2d4 | 
[V:3] z12 :
[V:4] z12 | 
[V:1] E2F2D2G4^F2 | 
[V:2] c2d4B2A4 | 
[V:3] z12 | 
[V:4] z4z4C4 | 
[V:1] G4z4c4 | 
[V:2] G8z4 | 
[V:3] z12 :
[V:4] B,3G,B,2D2C2B,A, | 
[V:1] B2d2c2BAG2B2 | 
[V:2] z12 | 
[V:3] z12 :
[V:4] G,2B,2A,2C2B,2A,G, | 
[V:1] A2c2B2AG^F3E | 
[V:2] z4z4c4 | 
[V:3] z12 | 
[V:4] F,3E,G,2B,2A,4 | 
[V:1] G4z4z4 | 
[V:2] B2G2A2B2cBAG | 
[V:3] z12 :
[V:4] G,4F,2D,2E,4 | 
[V:1] z12 | 
[V:2] F3GA2B4c2 | 
[V:3] z12 :
[V:4] D,4z2G,4E,2 | 
[V:1] z12 | 
[V:2] A2G2c2B2A4 | 
[V:3] z12 | 
[V:4] F,2G,2A,2G,4^F,2 | 
[V:1] z12 | 
[V:2] G4z2d2e2f2 | 
[V:3] z12 :
[V:4] G,2B,3A,B,2C2A,2 | 
[V:1] z12 | 
[V:2] g2d3ef3ed2 | 
[V:3] z12 :
[V:4] G,2B,3CD3EF2 | 
[V:1] z12 | 
[V:2] c2BAG2g4^f2 | 
[V:3] z12 | 
[V:4] E2D3CB,2A,4 | 
[V:1] z12 | 
[V:2] g2d3cB2A2G2 | 
[V:3] z12 :
[V:4] G,2B,3A,G,2F,2B,2 | 
[V:1] z4z4c4 | 
[V:2] F2c3BAGA4 | 
[V:3] z12 :
[V:4] C2A,3G,^F,E,F,4 | 
[V:1] B6G2B3c | 
[V:2] G4z4g4 | 
[V:3] z12 | 
[V:4] G,8z4 | 
[V:1] A4d2d4c2 | 
[V:2] a2f4d2e4 | 
[V:3] z12 :
[V:4] z12 | 
[V:1] d3cA2B4AG | 
[V:2] d4z2G2B2c2 | 
[V:3] z12 :
[V:4] z12 | 
[V:1] F3EF2G2F2B2 | 
[V:2] d3cA2B4AG | 
[V:3] z12 | 
[V:4] z12 | 
[V:1] c2d3BB4A2 | 
[V:2] F2B4d2c4 | 
[V:3] z12 :
[V:4] z12 | 
[V:1] B2AGF2G4E2 | 
[V:2] B4A2G2B2c2 | 
[V:3] z12 :
[V:4] z12 | 
[V:1] D3EF2G2A2c2 | 
[V:2] d3cB2AGF3E | 
[V:3] z12 | 
[V:4] z12 | 
[V:1] B3GA2G4^F2 | 
[V:2] G2ABcBAGA4 | 
[V:3] z12 :
[V:4] z12 | 
[V:1] G4z4G4 | 
[V:2] z2G4B4c2 | 
[V:3] z12 :
[V:4] G,4G,6E,2 | 
[V:1] A2B3AA4G2 | 
[V:2] A2d3cA2B4 | 
[V:3] z12 | 
[V:4] F,2G,3F,/E,/F,2G,4 | 
[V:1] A12 | 
[V:2] A8d4- | 
[V:3] D8D4 :
[V:4] F,6D,2D,4 | 
[V:1] B6G2G4 | 
[V:2] d4_e6d2- | 
[V:3] G8G4 :
[V:4] z4z4C,4 | 
[V:1] A4G2G4E2 | 
[V:2] d6B2c2Bc | 
[V:3] F4E8 | 
[V:4] F,4G,8 | 
[V:1] F4G2A3GE2 | 
[V:2] d6c2A4 | 
[V:3] D4z8 :
[V:4] A,4B,2A,2C4 | 
[V:1] F2D4G4F2 | 
[V:2] z2B3cd4c2 | 
[V:3] z12 :
[V:4] D4G,4A,4 | 
[V:1] G2A4B2cBAG | 
[V:2] B2A4d4c2 | 
[V:3] z12 | 
[V:4] G,2F,2D,4E,4 | 
[V:1] F4z4A4 | 
[V:2] d6c2d2f2 | 
[V:3] A4A4D4 :
[V:4] D,6F,3G,A,2 | 
[V:1] B2c2A4z2A2- | 
[V:2] e2c2d2f2e3d | 
[V:3] z4A4A4 :
[V:4] G,2E,2F,2D,4C,2 | 
[V:1] AGF3EF2G2E2 | 
[V:2] d6^c2^c2=B2 | 
[V:3] A4G8 | 
[V:4] D,2E,F,G,F,E,D,E,4 | 
[V:1] F2EFGFED^C3=B, | 
[V:2] dcBAB2c3BAG | 
[V:3] F4E8 :
[V:4] D,4z4G,4 | 
[V:1] D8z4 | 
[V:2] F4z4A4 | 
[V:3] D12- :
[V:4] A,2B,2A,2D4C2 | 
[V:1] F3GA4B4 | 
[V:2] B2d4c2B3A | 
[V:3] D12 | 
[V:4] B,3A,A,4D4 | 
[V:1] c4B2G4F2 | 
[V:2] A4d4c2A2 | 
[V:3] z12 :
[V:4] C2A,2B,3CA,4 | 
[V:1] G2D2F4E4 | 
[V:2] B3cA2d4^c2 | 
[V:3] z12 :
[V:4] G,4F,2D,2A,4 | 
[V:1] D2F2G2A4B2 | 
[V:2] d4z2d2f2g2 | 
[V:3] z12 | 
[V:4] D,2D2E2F2D4 | 
[V:1] c2A4d4^c2 | 
[V:2] a3gf3e/d/e4 | 
[V:3] A4A4A4 :
[V:4] z12 | 
[V:1] d4d2d4cB | 
[V:2] d4z2d4e2 | 
[V:3] D12 :
[V:4] A,4A,4A,4 | 
[V:1] A4B2d2c2B2- | 
[V:2] f2d3cB2A2G2 | 
[V:3] z12 | 
[V:4] D,4G,4A,2B,2 | 
[V:1] BAA3GG4^F2 | 
[V:2] d4c2B2A4 | 
[V:3] z12 :
[V:4] G,2F,4G,2D,4 | 
[V:1] G4z4B4 | 
[V:2] G2B4A2B3A | 
[V:3] d8d4 :
[V:4] z2G,4F,2G,2B,2 | 
[V:1] c3BA2G4FE | 
[V:2] F4z4G4 | 
[V:3] c8c4 | 
[V:4] A,3G,F,2E,D,E,4 | 
[V:1] F2A4G2F2ED | 
[V:2] A2F4G2A4 | 
[V:3] d8d4 :
[V:4] D,4z4D,2E,2 | 
[V:1] C2F3GA3GF2 | 
[V:2] z4z4d4 | 
[V:3] A12 :
[V:4] F,6D,2D,4 | 
[V:1] E2A3GF2E4 | 
[V:2] e2f4d4^c2 | 
[V:3] z12 | 
[V:4] z12 | 
[V:1] D4z2G2A2c2 | 
[V:2] d4B2c3BA2 | 
[V:3] z12 :
[V:4] D,4_E,4F,4 | 
[V:1] B2d4c2B2AG | 
[V:2] G3AB2c2d2cB | 
[V:3] z12 :
[V:4] G,4z4z4 | 
[V:1] F2B2AGG4^F2 | 
[V:2] A2d2c2B2A3G | 
[V:3] z12 | 
[V:4] D,3E,F,2G,2D,4 | 
[V:1] G12 ||  
[V:2] G12 ||  
[V:3] z12 ||  
[V:4] G,12 ||  
[V:1]  [K:F] [K:clef=treble][M:2/1]z8 | 
[V:2]  [K:F] [K:clef=treble-8][M:2/1]G6E2 | 
[V:3]  [K:F] [K:clef=treble-8][M:2/1]z8 :
[V:4]  [K:F] [K:clef=bass][M:2/1]z8 | 
[V:1] z4G4- | 
[V:2] F3GB4 | 
[V:3] x8 :
[V:4] z8 | 
[V:1] G2E2F3G | 
[V:2] A2A4G2 | 
[V:3] x8 :
[V:4] z8 | 
[V:1] B4A2A2- | 
[V:2] G4c4- | 
[V:3] z8 :
[V:4] z8 | 
[V:1] A2G2G4 | 
[V:2] c2B2B4 | 
[V:3] x8 :
[V:4] z8 | 
[V:1] c6B2 | 
[V:2] A6G2 | 
[V:3] x8 :
[V:4] z8 | 
[V:1] B4A4- | 
[V:2] G4F4 | 
[V:3] z8 :
[V:4] z8 | 
[V:1] A2G2G4- | 
[V:2] G4B4 | 
[V:3] x8 :
[V:4] z8 | 
[V:1] G2^F2F2E2 | 
[V:2] A8 | 
[V:3] x8 | 
[V:4] z8 | 
[V:1] G4z4 | 
[V:2] G8 | 
[V:3] z8 :
[V:4] D6C2 | 
[V:1] d6c2 | 
[V:2] z8 | 
[V:3] x8 :
[V:4] B,4A,4 | 
[V:1] B4A4 | 
[V:2] d6c2 | 
[V:3] x8 :
[V:4] G,4F,4 | 
[V:1] G4F4 | 
[V:2] B4A4 | 
[V:3] z8 :
[V:4] G,4D,4 | 
[V:1] G2B2A2c2- | 
[V:2] G4F4 | 
[V:3] x8 :
[V:4] z8 | 
[V:1] cBAGF4 | 
[V:2] G2B2A2B2- | 
[V:3] x8 :
[V:4] z4D,4 | 
[V:1] G4A4 | 
[V:2] B2G2F4 | 
[V:3] z8 :
[V:4] E,4D,4 | 
[V:1] B6A2- | 
[V:2] G3AB2c2- | 
[V:3] x8 :
[V:4] z2G,4F,2- | 
[V:1] AGG4^F2 | 
[V:2] cGB2A4 | 
[V:3] x8 | 
[V:4] F,2G,2D,4 | 
[V:1] G8 | 
[V:2] z4G4 | 
[V:3] d8- :
[V:4] G,4z4 | 
[V:1] z4G4 | 
[V:2] B6AG | 
[V:3] d8 :
[V:4] G,6F,E, | 
[V:1] A2A4GF | 
[V:2] F3GA2B2 | 
[V:3] d8 :
[V:4] D,3E,F,2G,2 | 
[V:1] E4F4 | 
[V:2] c4A4 | 
[V:3] c8- :
[V:4] A,2A,4F,2 | 
[V:1] G2A2G2c2- | 
[V:2] z2A2B2A2 | 
[V:3] c8 :
[V:4] E,2F,2E,2A,2- | 
[V:1] cBA2G2FE | 
[V:2] F4G4 | 
[V:3] c8 :
[V:4] A,D,F,2E,4 | 
[V:1] F4D4 | 
[V:2] A6B2- | 
[V:3] d8- :
[V:4] D,3E,F,2G,2 | 
[V:1] z4A4 | 
[V:2] B2G2A4 | 
[V:3] d8 :
[V:4] D,2G,4^F,2 | 
[V:1] B4B4 | 
[V:2] G4z2d2 | 
[V:3] d8 | 
[V:4] G,8 | 
[V:1] c6d2 | 
[V:2] e2f4ed | 
[V:3] A8- :
[V:4] z8 | 
[V:1] e2d2c2A2- | 
[V:2] c2f2e2f2- | 
[V:3] A8- :
[V:4] z8 | 
[V:1] A2d4^c2 | 
[V:2] f2d2e4 | 
[V:3] A8 :
[V:4] z8 | 
[V:1] d4z4 | 
[V:2] z2d4c2 | 
[V:3] z8 :
[V:4] D,4F,4 | 
[V:1] d6c2 | 
[V:2] BAG2F2A2 | 
[V:3] x8 :
[V:4] G,2B,2A,2F,2 | 
[V:1] B2AG^F3E | 
[V:2] B2c2d4 | 
[V:3] x8 :
[V:4] G,2E,2D,4 | 
[V:1] G2B4c2 | 
[V:2] G4d2e2 | 
[V:3] z8 :
[V:4] z2D4C2 | 
[V:1] A2G4A2 | 
[V:2] f2g2e3f | 
[V:3] x8 :
[V:4] D2E3DC2 | 
[V:1] B2c2d2cB | 
[V:2] g2a4g2 | 
[V:3] d8 | 
[V:4] B,2A,2B,4 | 
[V:1] c2c4BA | 
[V:2] a6gf | 
[V:3] e8- :
[V:4] A,6C2- | 
[V:1] G3AB2c2 | 
[V:2] e2dcB2A2 | 
[V:3] e8 :
[V:4] C2B,A,G,2A,2 | 
[V:1] d2A2B4 | 
[V:2] d2c2B4 | 
[V:3] d8 :
[V:4] B,2A,4G,2 | 
[V:1] c2A3GA2 | 
[V:2] A2c3BA2 | 
[V:3] c8 :
[V:4] A,4F,4 | 
[V:1] B2d3cB2- | 
[V:2] G2B3AG2- | 
[V:3] B8- :
[V:4] z2G,6 | 
[V:1] BAA4G2 | 
[V:2] G2F2E3D | 
[V:3] B8 :
[V:4] _E,2F,2G,4 | 
[V:1] A4z4 | 
[V:2] F4z4 | 
[V:3] A8- :
[V:4] D,6F,2- | 
[V:1] F6E2 | 
[V:2] z8 | 
[V:3] A8- :
[V:4] F,E,D,4C,2 | 
[V:1] D4C4 | 
[V:2] f6e2 | 
[V:3] A8 | 
[V:4] D,3E,F,4- | 
[V:1] F4G4 | 
[V:2] d4c4 | 
[V:3] z8 :
[V:4] F,2D,2E,4 | 
[V:1] A4G2E2 | 
[V:2] f4g4 | 
[V:3] x8 :
[V:4] D,4z4 | 
[V:1] F3GE2G2 | 
[V:2] a4g2e2 | 
[V:3] x8 :
[V:4] z8 | 
[V:1] A2A2G2E2 | 
[V:2] f3ge2g2 | 
[V:3] z8 :
[V:4] z8 | 
[V:1] F3GE2G2 | 
[V:2] a2a2g2e2 | 
[V:3] x8 :
[V:4] z8 | 
[V:1] F2D4^C2 | 
[V:2] f3ge4 | 
[V:3] x8 :
[V:4] z8 | 
[V:1] D4z4 | 
[V:2] d4c2A2 | 
[V:3] z8 :
[V:4] D,4F,4 | 
[V:1] D4F4 | 
[V:2] B3cA4 | 
[V:3] x8 :
[V:4] G,4A,4 | 
[V:1] G4A4 | 
[V:2] z8 | 
[V:3] x8 | 
[V:4] B,3CA,4 | 
[V:1] B3cA4 | 
[V:2] z8 | 
[V:3] z8 :
[V:4] z2D2C2B,A, | 
[V:1] z2d2c2BA | 
[V:2] z8 | 
[V:3] x8 :
[V:4] B,3CA,2A,2- | 
[V:1] B3cA2A2- | 
[V:2] z8 | 
[V:3] x8 :
[V:4] A,2G,2F,2E,D, | 
[V:1] A2G2F2ED | 
[V:2] z8 | 
[V:3] z8 :
[V:4] C,4D,2F,2 | 
[V:1] C2D2F2E2- | 
[V:2] z8 | 
[V:3] x8 :
[V:4] E,2D,2A,2G,A, | 
[V:1] EDD4^C2 | 
[V:2] z8 | 
[V:3] x8 :
[V:4] B,A,G,F,E,3D, | 
[V:1] D4z4 | 
[V:2] A4B2d2- | 
[V:3] D8- :
[V:4] D,8 | 
[V:1] F4G2A2- | 
[V:2] d2c2B2AG | 
[V:3] D8 :
[V:4] z4D4- | 
[V:1] A2G2^F3E | 
[V:2] F2B2A4 | 
[V:3] D8 | 
[V:4] D2D2D4 | 
[V:1] G2B3cd2- | 
[V:2] G4z4 | 
[V:3] G8- :
[V:4] B,4G,2B,2- | 
[V:1] d2G3AB2- | 
[V:2] G2B3cd2- | 
[V:3] G8 :
[V:4] B,CD4G,2- | 
[V:1] B2G2G4 | 
[V:2] d2cd_edcB | 
[V:3] G8 :
[V:4] G,2_E,3F,G,2 | 
[V:1] z4A4 | 
[V:2] A2d3ef2 | 
[V:3] F8 :
[V:4] D,4z2A,2 | 
[V:1] B2c3BG2- | 
[V:2] g4e2g2- | 
[V:3] E8- :
[V:4] G,3A,B,2C2- | 
[V:1] GAB4AG | 
[V:2] gfed^c3=B | 
[V:3] E8 :
[V:4] C2B,2G,3F, | 
[V:1] F8 | 
[V:2] d4z4 | 
[V:3] D8- :
[V:4] A,4A,2A,2- | 
[V:1] z8 | 
[V:2] a4a2a2- | 
[V:3] D8- :
[V:4] A,2A,2F,4- | 
[V:1] A4A2A2- | 
[V:2] a2a2f4 | 
[V:3] D8 | 
[V:4] F,2F,2F,4 | 
[V:1] A2A2F4 | 
[V:2] f4f4 | 
[V:3] z8 :
[V:4] D,4z4 | 
[V:1] F8 | 
[V:2] d4z2a2- | 
[V:3] x8 :
[V:4] D,4D,4- | 
[V:1] D4z2A2- | 
[V:2] a2g2f2d2 | 
[V:3] x8 :
[V:4] D,2D,2D,4 | 
[V:1] A2G2F2G2 | 
[V:2] e4d2B2 | 
[V:3] z8 :
[V:4] C,4D,2E,2 | 
[V:1] E2D4d2- | 
[V:2] c2d2f4- | 
[V:3] x8 :
[V:4] C,2F,4D,2 | 
[V:1] d2cBcBAG | 
[V:2] f2d2e4 | 
[V:3] x8 :
[V:4] D,4A,4 | 
[V:1] F2A4G2 | 
[V:2] d4A4 | 
[V:3] z8 :
[V:4] D,4z2D,2- | 
[V:1] E4D4 | 
[V:2] z2e2f3g | 
[V:3] x8 :
[V:4] D,2C,2D,3E, | 
[V:1] z2D2F2G2 | 
[V:2] a2a4g2 | 
[V:3] x8 | 
[V:4] F,3G,A,2B,2 | 
[V:1] A4G3F | 
[V:2] e2f2d3e | 
[V:3] z8 :
[V:4] C2A,2B,3A, | 
[V:1] A6F2- | 
[V:2] f2edc2d2- | 
[V:3] x8 :
[V:4] F,4z2D,2- | 
[V:1] F2E2D4 | 
[V:2] d2cBA2GF | 
[V:3] x8 :
[V:4] D,2E,2F,2E,D, | 
[V:1] E4F4 | 
[V:2] E4z2A2 | 
[V:3] z8 :
[V:4] C,3B,,D,2F,2 | 
[V:1] G6D2 | 
[V:2] B2c2d4 | 
[V:3] d8 :
[V:4] E,2C,4=B,,2 | 
[V:1] E3FG4 | 
[V:2] c6B2 | 
[V:3] z8 :
[V:4] C,3D,E,2D,E, | 
[V:1] A4D4 | 
[V:2] A2d3cA2 | 
[V:3] z8 :
[V:4] F,2D,3E,F,2 | 
[V:1] z2E4C2 | 
[V:2] B2c2G4 | 
[V:3] x8 :
[V:4] G,2C,2z2G,2- | 
[V:1] E3FG2FE | 
[V:2] z2c6 | 
[V:3] x8 | 
[V:4] G,F,E,D,C,3B,, | 
[V:1] F3GA4 | 
[V:2] A4z2d2 | 
[V:3] z8 :
[V:4] D,3E,F,2G,2 | 
[V:1] D8 | 
[V:2] f3ga4 | 
[V:3] x8 :
[V:4] A,4D,4 | 
[V:1] A8- | 
[V:2] d8- | 
[V:3] x8 :
[V:4] z4F,4 | 
[V:1] A8- | 
[V:2] d8- | 
[V:3] z8 :
[V:4] F,8 | 
[V:1] A8 ||  
[V:2] d8 ||  
[V:3] z8 ||  
[V:4] A,8 ||  
[V:1]  [K:F] [K:clef=treble][M:4/1]G8A4G4 | 
[V:2]  [K:F] [K:clef=treble-8][M:4/1]G8F4G4 | 
[V:3]  [K:F] [K:clef=treble-8][M:6/1](3:2:1z24 | 
[V:4]  [K:F] [K:clef=bass][M:4/1]G,8D,4E,4 | 
[V:1] c6B2B4G4 | 
[V:2] A8G4E4 | 
[V:3] (3:2:1z24 | 
[V:4] F,8G,8 | 
[V:1] A6GAB3cB2AG | 
[V:2] F8G8 | 
[V:3] (3:2:1z24 | 
[V:4] D,8D8 | 
[V:1] F4z4B8 | 
[V:2] d8-d8 | 
[V:3] (3:2:4D8D4G8G4 | 
[V:4] z4A,4B,4B,4 | 
[V:1] A4G4F4B4 | 
[V:2] z4e4f4d2f2 | 
[V:3] (3F4E8D12 | 
[V:4] C4C4D8 | 
[V:1] A2A4G2F4E4 | 
[V:2] e2c2d3ef2ed^c3=B | 
[V:3] (3:2:4z12A4A4A4 | 
[V:4] C2A,2B,4A,4z4 | 
[V:1] (3:2:10D4E2F2G2A2B2A2G4^F2E2 | 
[V:2] d4z2d4B2A4 | 
[V:3] (3:2:2D12z12 | 
[V:4] A,4F,4G,4D,4 | 
[V:1] G4z4E8 | 
[V:2] G8z4G4 | 
[V:3] (3:2:4d8d4c8c4 | 
[V:4] (3:2:6G,6A,2B,4A,6G,2E,4 | 
[V:1] F4F4E4C4 | 
[V:2] A4B4c3de4 | 
[V:3] (3d8d4A12 | 
[V:4] D,8z4z4 | 
[V:1] D2F2E4D4F4 | 
[V:2] f2d4c2d2cBA2B2 | 
[V:3] (3z12d8d4 | 
[V:4] D,4A,4B,2A,G,F,2G,2 | 
[V:1] E4(3:2:5F2G4F4A4B4 | 
[V:2] c2BAG3FA4z4 | 
[V:3] (3:2:4c8c4d8d4 | 
[V:4] A,2G,F,E,4(3D,4F,4G,4 | 
[V:1] (3:2:7c2A4G4^F2G6A2B4 | 
[V:2] z4d4(3d6e2f4 | 
[V:3] (3:2:4A12z4z4d4 | 
[V:4] (3:2:7A,2F,4G,2D,4G,6F,2D,4 | 
[V:1] (3:2:7c8B2A2A6G2G2F2 | 
[V:2] (3g8f4-f4d4(3:2:1d2 | 
[V:3] (3:2:4e8d4c4B8 | 
[V:4] (3:2:4C,8D,4F,4G,8 | 
[V:1] A4z2A4G2F2G2 | 
[V:2] (3d4f6e2e4d2cB | 
[V:3] (3:2:2A12z12 | 
[V:4] D,8C,4D,2E,2 | 
[V:1] A2F3EA3GF2E4 | 
[V:2] A2a3gf2e2d4^c2 | 
[V:3] (3:2:1z24 | 
[V:4] F,3G,A,3B,C2D2A,4 | 
[V:1] (3:2:6D6G4^F2G6A2B4 | 
[V:2] (3:2:7d4B2G2A4G4d6e2 | 
[V:3] (3:2:4D8D4G8G4 | 
[V:4] z4D4(3B,6G,2G,4 | 
[V:1] (3:2:7A4G2G4E2F6G2A4 | 
[V:2] (3:2:8f2d4e2^c2=B2d4z4f4 | 
[V:3] (3F4E8D12 | 
[V:4] (3:2:7D,4E,2F,2G,4A,4B,4A,4 | 
[V:1] (3:2:9B4A2B4G2F2A3GG4^F2 | 
[V:2] (3:2:5g4f2d4c2d2c2(3GB2A4 | 
[V:3] (3:2:1z24 | 
[V:4] (3:2:8G,4D,4E,4D,2F,3G,E,2D,4 | 
[V:1] G8-G8 |]  
[V:2] G8-G8 |]  
[V:3] (3:2:1z24 |]  
[V:4] G,8-G,8 |]  



